**kern	**kern	**dynam
*part1	*part1	*part1
*staff2	*staff1	*
*I"Piano	*	*
*clefF4	*clefG2	*
*k[]	*k[]	*
=1	=1	=1
*	*^	*
8AAL) 8A	(8eeL]	8eL] 8cc	.
(8GGn 8Gn	8ee	8e 8a 8cc#X	.
8FFn 8Fn	8aa	8a 8dd	.
8FF#XJ) 8F#X	8ccnJ)	8dJ 8a	.
*	*v	*v	*
=	=	=
*^	*	*
!	!	!LO:TX:a:i:t=poco cal.	!
(8cL	8GGL	(8aL 8dd	.
8B	8G	8g 8ee	.
8A	8G	(8f) 8ff	.
8BJ)	16GJk	16gJk) 16ff	.
.	16rA	16r	.
*v	*v	*	*
=	=	=
8r	8r	.
8CL 8G 8c	(8eL 8cc 8ee	f
8C 8G 8c	8e 8cc	.
8CCJ 8GG 8C	8cJ 8e	.
=	=	=
4FF^ 4C	4A^) 4f 4a	.
4CC^ 4GG 4C	4G^ 4e 4g	.
*clefG2	*	*
=	=	=
8r	8r	.
(8b-XL	(8ccL 8ee	p
8B-X	8e 8cc	.
*clefF4	*	*
8CJ) 8B-X	8eJ)	.
=	=	=
!	!LO:TX:a:i:t=rit.	!
4CC 4C	(4B-X 4e 4a	.
4CC 4C	4B-) 4e 4g	.
=	=	=
(8BBBL 8BB	4.Bn 4.e 4.g#X	.
8CC#X 8C#X	.	.
8GGG#X 8GG#X	.	.
8GG#J) 8G#X	[8B [8e [8b	.
=	=	=
*-	*-	*-
!!!system-decoration: {(s1,s2)}
